src/topics/icons/importio.svg

<svg height="152" preserveAspectRatio="xMidYMid" viewBox="0 0 512 152" width="512" xmlns="http://www.w3.org/2000/svg"><path d="m511.891394 76.1964606c.017067 41.8172124-33.868024 75.7310064-75.686012 75.7488484-41.817212.017067-75.731006-33.8688-75.748849-75.686012v-.0628364c-.017066-41.8179879 33.8688-75.73178181 75.686012-75.74884848 41.817213-.01784242 75.731782 33.86802428 75.748849 75.68523638z" fill="#db3975"/><path d="m406.217697 53.7894788h12.338424v51.8353452h-12.338424z" fill="#fff"/><path d="m451.577018 107.178667c-16.171442 0-26.957576-11.8171155-26.957576-27.6790306 0-15.8611394 10.990158-27.2678788 26.435491-27.2678788 14.408146 0 26.750449 10.0592485 26.849746 27.2678788.000776 16.1722181-10.672097 27.6790306-26.327661 27.6790306m-.619054-43.7488488c-7.7824 0-13.381819 6.2200242-13.381819 15.7540848 0 10.6821818 6.53731 16.5895758 13.999322 16.5895758 9.018181 0 13.579636-7.8793697 13.263903-16.4817455-.203249-8.6039272-5.180509-15.8619151-13.881406-15.8619151" fill="#fff"/><path d="m420.822109 41.5441455c0 4.5552484-3.691054 8.2455272-8.246303 8.2455272-4.556024 0-8.2432-3.6887272-8.2432-8.2455272 0-4.553697 3.687952-8.2470788 8.2432-8.2470788 4.554473 0 8.246303 3.6933818 8.246303 8.2470788" fill="#fff"/><g fill="#4c4d4a"><path d="m23.9546182 50.7275636h15.3328485l-.0209455 7.4201212c5.1805091-6.4752484 14.3794424-9.1989333 20.4675879-9.1989333 6.0920242 0 13.7340121 2.3319273 18.0107636 9.9762424 2.5902546-3.6282181 9.3246061-9.9762424 20.729794-9.9762424 6.4760243 0 12.6937213 1.8152727 17.1008003 6.607903 5.180509 5.7010425 5.052509 12.5688243 5.052509 19.3031758v40.9568967h-15.418958v-35.9012846c0-6.0889212.906861-16.3250424-10.8831028-16.3250424-4.9206304 0-8.9367273 2.7205818-11.0103273 6.0904727-2.9804606 4.7941818-3.3691152 9.9739152-3.3691152 15.5454061v30.5920002h-15.4189575v-36.2907154c0-4.6661818 0-6.351903-.5182061-8.2920727-1.1636364-4.278303-4.5319758-7.6458667-9.9746909-7.6458667-4.6646303 0-9.1973818 2.7198061-11.9187394 7.5132122-2.7229091 5.0540606-2.8509091 11.1437575-2.8509091 17.4894545v27.2244361h-15.4166303z"/><path d="m126.324364 50.8920242h15.415854v5.9593697c2.462255-2.588703 7.646643-7.9010909 17.751661-7.9010909 19.044848 0 29.408194 17.1039031 29.408194 34.9812364 0 19.3031756-12.049843 33.6833936-29.408194 33.6833936-8.939055 0-14.50977-4.272872-17.751661-7.257212v26.433164h-15.415854zm31.093915 52.0812608c7.516315 0 15.677285-5.1797335 15.677285-19.821382 0-16.1931636-11.270982-19.3008485-15.934061-19.3008485-7.127661 0-15.287079 5.1812849-15.546958 19.0417455-.262206 13.3453576 7.122231 20.080485 15.803734 20.080485z"/><path d="m227.169745 117.616485c-20.210036 0-33.683393-14.773527-33.683393-34.5933577 0-19.8244849 13.733236-34.0728243 33.034084-34.0728243 18.008437 0 33.430497 12.5688243 33.557722 34.0728243 0 20.2108117-13.348461 34.5933577-32.908413 34.5933577m-.779636-54.6722911c-9.714036 0-16.709818 7.7738667-16.709818 19.6887273 0 13.3476849 8.159418 20.7313458 17.489454 20.7313458 11.268655 0 16.970473-9.8435882 16.58337-20.6017943-.259879-10.752-6.479903-19.8182788-17.363006-19.8182788"/><path d="m280.078739 50.8920242v10.080194c1.941722-3.3691152 6.218473-11.0157576 20.728243-10.6247758v15.9356121c-3.366788.1303273-9.202812.2583273-13.993115 3.8865455-6.608679 5.0532848-6.735128 11.6619636-6.735128 22.4139636v23.1881694h-15.031078v-64.8797088z"/><path d="m2.41260606 50.7275636h15.77347874v65.1310544h-15.77347874z"/><path d="m21.0881939 35.0045091c0 5.8228364-4.7220363 10.5425454-10.5433212 10.5425454-5.82361209 0-10.5448727-4.719709-10.5448727-10.5425454 0-5.8212849 4.72048485-10.544097 10.5448727-10.544097 5.8212849 0 10.5433212 4.7228121 10.5433212 10.544097"/><path d="m343.985648 65.4211879v-2.3171879h.013964v-11.1429818h-.013964v-.8510061h-13.847272v-21.8220606h-15.546182v21.8220606h-9.765236v14.3111758h9.765236v29.651006c0 6.4791271 0 10.6247761 1.034085 13.2158061 2.981236 7.900315 13.858909 7.900315 17.100024 7.900315 3.50177 0 6.609455-.256 11.273309-1.03486v-13.085479c-2.2016.648533-4.1472.774982-6.483006.774982-7.376679 0-7.376679-3.4947883-7.376679-11.5293095v-25.8924606z"/></g></svg>

<?xml version="1.0" encoding="UTF-8" standalone="no"?>
<svg width="512px" height="152px" viewBox="0 0 512 152" version="1.1" xmlns="http://www.w3.org/2000/svg" xmlns:xlink="http://www.w3.org/1999/xlink" preserveAspectRatio="xMidYMid">
	<g>
		<path d="M511.891394,76.1964606 C511.908461,118.013673 478.02337,151.927467 436.205382,151.945309 C394.38817,151.962376 360.474376,118.076509 360.456533,76.259297 L360.456533,76.1964606 C360.439467,34.3784727 394.325333,0.464678788 436.142545,0.447612121 C477.959758,0.429769697 511.874327,34.3156364 511.891394,76.1328485 L511.891394,76.1964606" fill="#DB3975"></path>
		<path d="M406.217697,53.7894788 L418.556121,53.7894788 L418.556121,105.624824 L406.217697,105.624824 L406.217697,53.7894788 Z" fill="#FFFFFF"></path>
		<path d="M451.577018,107.178667 C435.405576,107.178667 424.619442,95.3615515 424.619442,79.4996364 C424.619442,63.638497 435.6096,52.2317576 451.054933,52.2317576 C465.463079,52.2317576 477.805382,62.2910061 477.904679,79.4996364 C477.905455,95.6718545 467.232582,107.178667 451.577018,107.178667 M450.957964,63.4298182 C443.175564,63.4298182 437.576145,69.6498424 437.576145,79.183903 C437.576145,89.8660848 444.113455,95.7734788 451.575467,95.7734788 C460.593648,95.7734788 465.155103,87.8941091 464.83937,79.2917333 C464.636121,70.6878061 459.658861,63.4298182 450.957964,63.4298182" fill="#FFFFFF"></path>
		<path d="M420.822109,41.5441455 C420.822109,46.0993939 417.131055,49.7896727 412.575806,49.7896727 C408.019782,49.7896727 404.332606,46.1009455 404.332606,41.5441455 C404.332606,36.9904485 408.020558,33.2970667 412.575806,33.2970667 C417.130279,33.2970667 420.822109,36.9904485 420.822109,41.5441455" fill="#FFFFFF"></path>
		<path d="M23.9546182,50.7275636 L39.2874667,50.7275636 L39.2665212,58.1476848 C44.4470303,51.6724364 53.6459636,48.9487515 59.7341091,48.9487515 C65.8261333,48.9487515 73.4681212,51.2806788 77.7448727,58.9249939 C80.3351273,55.2967758 87.0694788,48.9487515 98.4746667,48.9487515 C104.950691,48.9487515 111.168388,50.7640242 115.575467,55.5566545 C120.755976,61.257697 120.627976,68.1254788 120.627976,74.8598303 L120.627976,115.816727 L105.209018,115.816727 L105.209018,79.9154424 C105.209018,73.8265212 106.115879,63.5904 94.3259152,63.5904 C89.4052848,63.5904 85.3891879,66.3109818 83.3155879,69.6808727 C80.3351273,74.4750545 79.9464727,79.6547879 79.9464727,85.2262788 L79.9464727,115.818279 L64.5275152,115.818279 L64.5275152,79.5275636 C64.5275152,74.8613818 64.5275152,73.1756606 64.0093091,71.2354909 C62.8456727,66.9571879 59.4773333,63.5896242 54.0346182,63.5896242 C49.3699879,63.5896242 44.8372364,66.3094303 42.1158788,71.1028364 C39.3929697,76.156897 39.2649697,82.2465939 39.2649697,88.5922909 L39.2649697,115.816727 L23.8483394,115.816727 L23.9546182,50.7275636" fill="#4C4D4A"></path>
		<path d="M126.324364,50.8920242 L141.740218,50.8920242 L141.740218,56.8513939 C144.202473,54.2626909 149.386861,48.950303 159.491879,48.950303 C178.536727,48.950303 188.900073,66.0542061 188.900073,83.9315394 C188.900073,103.234715 176.85023,117.614933 159.491879,117.614933 C150.552824,117.614933 144.982109,113.342061 141.740218,110.357721 L141.740218,136.790885 L126.324364,136.790885 L126.324364,50.8920242 L126.324364,50.8920242 Z M157.418279,102.973285 C164.934594,102.973285 173.095564,97.7935515 173.095564,83.151903 C173.095564,66.9587394 161.824582,63.8510545 157.161503,63.8510545 C150.033842,63.8510545 141.874424,69.0323394 141.614545,82.8928 C141.352339,96.2381576 148.736776,102.973285 157.418279,102.973285 L157.418279,102.973285 Z" fill="#4C4D4A"></path>
		<path d="M227.169745,117.616485 C206.959709,117.616485 193.486352,102.842958 193.486352,83.0231273 C193.486352,63.1986424 207.219588,48.950303 226.520436,48.950303 C244.528873,48.950303 259.950933,61.5191273 260.078158,83.0231273 C260.078158,103.233939 246.729697,117.616485 227.169745,117.616485 M226.390109,62.9441939 C216.676073,62.9441939 209.680291,70.7180606 209.680291,82.6329212 C209.680291,95.9806061 217.839709,103.364267 227.169745,103.364267 C238.4384,103.364267 244.140218,93.5206788 243.753115,82.7624727 C243.493236,72.0104727 237.273212,62.9441939 226.390109,62.9441939" fill="#4C4D4A"></path>
		<path d="M280.078739,50.8920242 L280.078739,60.9722182 C282.020461,57.603103 286.297212,49.9564606 300.806982,50.3474424 L300.806982,66.2830545 C297.440194,66.4133818 291.60417,66.5413818 286.813867,70.1696 C280.205188,75.2228848 280.078739,81.8315636 280.078739,92.5835636 L280.078739,115.771733 L265.047661,115.771733 L265.047661,50.8920242 L280.078739,50.8920242" fill="#4C4D4A"></path>
		<path d="M2.41260606,50.7275636 L18.1860848,50.7275636 L18.1860848,115.858618 L2.41260606,115.858618 L2.41260606,50.7275636 Z" fill="#4C4D4A"></path>
		<path d="M21.0881939,35.0045091 C21.0881939,40.8273455 16.3661576,45.5470545 10.5448727,45.5470545 C4.72126061,45.5470545 0,40.8273455 0,35.0045091 C0,29.1832242 4.72048485,24.4604121 10.5448727,24.4604121 C16.3661576,24.4604121 21.0881939,29.1832242 21.0881939,35.0045091" fill="#4C4D4A"></path>
		<path d="M343.985648,65.4211879 L343.985648,63.104 L343.999612,63.104 L343.999612,51.9610182 L343.985648,51.9610182 L343.985648,51.1100121 L330.138376,51.1100121 L330.138376,29.2879515 L314.592194,29.2879515 L314.592194,51.1100121 L304.826958,51.1100121 L304.826958,65.4211879 L314.592194,65.4211879 L314.592194,95.0721939 C314.592194,101.551321 314.592194,105.69697 315.626279,108.288 C318.607515,116.188315 329.485188,116.188315 332.726303,116.188315 C336.228073,116.188315 339.335758,115.932315 343.999612,115.153455 L343.999612,102.067976 C341.798012,102.716509 339.852412,102.842958 337.516606,102.842958 C330.139927,102.842958 330.139927,99.3481697 330.139927,91.3136485 L330.139927,65.4211879 L343.985648,65.4211879" fill="#4C4D4A"></path>
	</g>
</svg>
